src/vs/editor/contrib/suggest/media/Operator_16x_vscode.svg

<svg viewBox="0 0 16 16" xmlns="http://www.w3.org/2000/svg"><path d="m16 16h-16v-16h16z" fill="#f6f6f6" opacity="0"/><path d="m1 1v14h14v-14zm6 12h-4v-1h4zm0-3h-4v-1h4zm0-5h-2v2h-1v-2h-2v-1h2v-2h1v2h2zm3.281 8h-1.562l3-4h1.563zm3.719-8h-5v-1h5z" fill="#00539c"/></svg>

<svg xmlns="http://www.w3.org/2000/svg" viewBox="0 0 16 16"><style>.icon-canvas-transparent{opacity:0;fill:#f6f6f6}.icon-vs-out{fill:#f6f6f6}.icon-vs-fg{fill:#f0eff1}.icon-vs-action-blue{fill:#00539c}</style><path class="icon-canvas-transparent" d="M16 16H0V0h16v16z" id="canvas"/><path class="icon-vs-out" d="M16 16H0V0h16v16z" id="outline" style="display: none;"/><path class="icon-vs-action-blue" d="M1 1v14h14V1H1zm6 12H3v-1h4v1zm0-3H3V9h4v1zm0-5H5v2H4V5H2V4h2V2h1v2h2v1zm3.281 8H8.719l3-4h1.563l-3.001 4zM14 5H9V4h5v1z" id="iconBg"/><path class="icon-vs-fg" d="M7 5H5v2H4V5H2V4h2V2h1v2h2v1zm7-1H9v1h5V4zM7 9H3v1h4V9zm0 3H3v1h4v-1zm3.281 1l3-4h-1.563l-3 4h1.563z" id="iconFg" style="display: none;"/></svg>
